X: 42721
T: Whistling Postman, The
R: reel
M: 4/4
K: Dmajor
|:e|fd~d2 edBc|dBAF EGFE|~D3F AF~F2|ABdf g2ag|
fd~d2 edBc|dBAF EGFE|D2ED FAdf|eABc d3:|
e|fddc dfaf|bfaf gfef|dfaf ~g3b|afdf e2de|
fddc dfaf|bfaf gfef|d2AG FAdf|eABc d3e|
fddc dfaf|bfaf gfef|dfaf ~g3b|afdf e2fg|
~a3b afdf|gefd edBc|d2AG FAdf|eABc d3||

